X:1
T:Levabo oculos meos
T:Lassus
T:Levabo oculos meos
T:Copyright © 2017 by The Choral Public Domain Library. Edition may be freely distributed, duplicated, performed or recorded.
T:Copyright © 2017 by The Choral Public Domain Library. Edition may be freely distributed, duplicated, performed or recorded.
T:Copyright © 2017 by The Choral Public Domain Library. Edition may be freely distributed, duplicated, performed or recorded.
T:Copyright © 2017 by The Choral Public Domain Library. Edition may be freely distributed, duplicated, performed or recorded.
T:Copyright © 2017 by The Choral Public Domain Library. Edition may be freely distributed, duplicated, performed or recorded.
T:Copyright © 2017 by The Choral Public Domain Library. Edition may be freely distributed, duplicated, performed or recorded.
T:Copyright © 2017 by The Choral Public Domain Library. Edition may be freely distributed, duplicated, performed or recorded.
T:Copyright © 2017 by The Choral Public Domain Library. Edition may be freely distributed, duplicated, performed or recorded.
C:Lassus
Z:Copyright © 2017 by The Choral Public Domain Library. Edition may be freely distributed, duplicated, performed or recorded.
%%score [ 1 2 3 4 ]
L:1/8
Q:1/2=96
M:4/2
K:C
V:1 treble nm="SOPRANO" snm="S."
V:2 treble nm="ALTO" snm="A."
V:3 treble-8 transpose=-12 nm="TENOR" snm="T."
V:4 bass nm="BASS" snm="B."
V:1
"^Offertory, Tuesday after Lent 1:Ps 119: I will lift up my eyes to see clearlythe wonders of your law.  Teach me your righteousness,give me understanding to learn your commands." z16 | %1
w: |
 E8 B8 | c8 z4 B4- | B4 c4 d4 G4- | G4 A4 (3B6 c2 d4 | (G8 F8 | E6 DC) B,4 E4 | B8 d4 G4- | %8
w: Le- va-|bo o-|* cu- los, o-|* cu- los _ _|me- *|* * * os, le-|va- bo o-|
 G4 A4 B4 d4 | G8 F4 F4 | E4 (A6 ^G^F G4) | A8 z8 | z8 F8 | E4 (=G6 FE D2 E2 | F2 G2 A4) G8- | %15
w: * cu- los me-|os, o- cu-|los me- * * *|os|et|con- si- * * * *|* * * de-|
 G8 (F2 G2 A2 B2 | c4) G4 z8 | z4 F8 E4 | (G6 FE D2 E2 F2 G2 | A4) A4 G4 E4 | z4 G4 ^F4 A4- | %21
w: * ra- * * *|* bo,|et con-|si- * * * * * *|* de- ra- bo,|et con- si-|
 (A2 GF E2 F2 G4) G4 | F8 (E6 F2 | G16) | z4 F4 G4 A4- | A2 G2 A4 F4 D4 | (A6 G2 ^F4) A4 | %27
w: * * * * * * de-|ra- bo _|_|mi- ra- bi-|* li- a tu- a|Do- * * mi-|
 G8 z4 A4 | B4 c6 B2 c4 | A4 A4 G8- | G4 G4 C4 c4- | (c2 BA B4) A8 | G4 (A8 G4-) | %33
w: ne, mi-|ra- bi- li- a|tu- a Do-|* mi- ne, ut|_ _ _ _ do-|ce- as _|
 (G2 ^FE F4) G4 c4 | B6 B2 (B8 | c8) d8 | G16- | G8 z4 E4 | (G6 F2 E4) D4 | E4 (c6 BA B4) | %40
w: _ _ _ _ me ju-|sti- ti- as|_ tu-|as,|_ da|mi- * * hi|in- tel- * * *|
 G8 G4 E4 | (G6 F2 E4) D4 | C4 c4 (c6 BA | B2 c2 d4) c8 | z4 B4 (A2 B2 c2 A2 | B2 c2 d4) c4 e4 | %46
w: le- ctum, da|mi- * * hi|in- tel- le- * *|* * * ctum|et di- * * *|* * * scam man-|
 d8 c4 B4- | B2 A2 A6 =GF G4 | E4 (c6 d2 e4) | d8 c4 B4- | B2 A2 A6 =GF G4 | E4 (e6 d2 c4) | %52
w: da- ta tu-||a, man- * *|da- ta tu-||a, man- * *|
 B2 A2 A8 ^G4 | A16 | ^G16 |] %55
w: da- * * ta|tu-|a.|
V:2
 A,8 E8 | G8 z4 E4- | E4 F4 G8 | E8 D4 E4- | E2 E2 A,4 D8 | E8 z4 A,4- | A,4 E8 G4 | %7
w: Le- va-|bo o-|* cu- los|me- os, o-|* cu- los me-|os, le-|* va- bo|
 D2 C2 B,2 A,2 G,2 A,2 B,2 E,2 | E4 A,4 (D8 | E8) A,4 A,4- | (A,2 B,2 C2 D2 E8) | z8 C8 | %12
w: o- * * * * * * *|* cu- los,|_ me- os|_ _ _ _ _|et|
 B,4 D6 CB, A,2 B,2 | C2 A,2 D4 (B,6 A,G, | C4) (A,2 B,2 C2 D2 E4-) | (E2 C2 D4) A,4 F4- | %16
w: con- si- * * * *|* * * de- * *|* ra- * * * *|* * * bo, et|
 F4 E4 (G2 FE D2 E2 | F2 G2 A4) D4 G4 | C8 z8 | F8 E4 G4- | (G2 FE D8) E4 | C2 B,A, G,6 E,2 E4- | %22
w: _ con- si- * * * *|* * * de- ra-|bo,|et con- si-|* * * * de-|ra- * * * * *|
 E2 DC D4 E4 C4 | D4 E6 D2 E4 | C4 A,4 z8 | z4 A,8 B,4 | C4 C4 D4 E4- | E2 D2 E4 C4 F4 | D4 F4 E8 | %29
w: * * * * bo mi-|ra- bi- li- a|tu- a|Do- mi-|ne, mi- ra- bi-|* li- a tu- a|Do- mi- ne,|
 z4 (F6 ED E4) | D4 D4 (E6 DC | D8) D4 A,4 | E6 E2 D8- | D8 B,4 E4 | D4 G,4 G8- | G8 F8 | %36
w: ut _ _ _|do- ce- as _ _|_ me ju-|sti- ti- as,|_ me ju-|sti- ti- as|_ tu-|
 E8 z4 C4 | (E6 D2 C4) B,4 | E4 D4 C4 B,4 | z4 E4 (G6 F2 | E6 D2 C4) G,4 | z4 G,4 G,4 G4- | %42
w: as, da|mi- * * hi|in- tel- le- ctum|da mi- *|* * * hi|in- tel- le-|
 (G2 F2 E2 D2 C4) A,4 | D8 E8 | D4 G4 (E6 !courtesy!^F2 | G8) G4 G4- | (G2 =FE F4) (E6 D2 | %47
w: * * * * * ctum|et di-|scam, et di- *|* scam man-|* * * * da- *|
 C4) D4 (E6 D2 | C2 B,2 A,4) G,4 G4- | (G2 FE F4) (E6 D2 | C4) D4 (E6 D2 | C2 B,2 A,4) G,4 G4- | %52
w: * ta tu- *|* * * a, man-|* * * * da- *|* ta tu- *|* * * a, man-|
 (G2 FE F4) (E6 D2 | C4) C4 D8 | E16 |] %55
w: * * * * da- *|* ta tu-|a.|
V:3
 z16 | z16 | z16 | E8 B8 | c8 z4 B4- | B4 c4 d4 d4 | (c6 BA G2 A2 B4) | z4 E4 B8 | c8 z4 B4- | %9
w: |||Le- va-|bo o-|* cu- los me-|os, _ _ _ _ _|le- va-|bo o-|
 B4 c4 d8 | (c6 BA B8) | A8 z8 | z8 z4 c4- | c4 B4 (d6 cB | A2 B2 c2 d2 e4) c4 | G4 G4 z8 | %16
w: * cu- los|me- * * *|os|et|_ con- si- * *|* * * * * de-|ra- bo,|
 z4 c8 B4 | (d6 cB A2 B2 c2 d2 | e4) E4 G4 A4 | z4 c8 B4 | (d6 cB A2 B2 c2 d2 | e4) c4 B4 c4 | %22
w: et con-|si- * * * * * *|* de- ra- bo,|et con-|si- * * * * * *|* de- ra- bo|
 z8 z4 A4 | B4 c6 B2 c4 | A4 d4 c6 c2 | c8 z8 | z4 A4 B4 c4- | c2 B2 c4 (A2 B2 c2 d2 | B4) A4 z8 | %29
w: mi-|ra- bi- li- a|tu- a Do- mi-|ne,|mi- ra- bi-|* li- a tu- * * *|* a|
 c6 c2 c4 c4- | (c2 BA B4) A4 A4 | G8 D4 d4- | (d2 cB c4) B6 B2 | A8 G4 G4- | G4 d8 e4 | %35
w: Do- mi- ne, ut|_ _ _ _ do- ce-|as me, ut|_ _ _ _ do- ce-|as me ju-|* sti- ti-|
 e4 (c6 BA B4) | c4 c4 (e6 d2 | c8) G8 | z4 G8 G4 | G8 d8 | z4 c4 (e6 d2 | c4) B4 c4 G4 | %42
w: as tu- * * *|as, da mi- *|* hi|in- tel-|le- ctum,|da mi- *|* hi in- tel-|
 E2 F2 G6 ^FE F4 | G4 B4 (A2 B2 c2 A2 | B2 c2 d4) c4 c4 | d4 B4 (e2 d2 c2 B2 | A4) A8 ^G4 | %47
w: le- * * * * *|ctum et di- * * *|* * * scam, et|di- scam man- * * *|* da- ta|
 (A8 B8) | A4 (e6 d2 c4) | B2 A2 A8 ^G4 | (A8 B8) | A4 (c6 d2 e4) | (d6 c2 B4) B4 | A16 | B16 |] %55
w: tu- *|a, man- * *|da- * * ta|tu- *|a, man- * *|da- * * ta|tu-|a.|
V:4
 z16 | z16 | A,,8 E,8 | G,8 z4 E,4- | E,4 F,4 G,8 | E,8 D,8 | A,,8 E,8 | G,8 z4 E,4- | %8
w: ||Le- va-|bo o-|* cu- los|me- os,|le- va-|bo o-|
 E,4 F,4 (G,6 F,2 | E,8) (D,2 E,2 F,2 G,2 | A,2 G,2 F,4) E,8 | z4 F,8 E,4 | %12
w: * cu- los _|_ me- * * *|* * * os|et con-|
 (G,6 F,E, D,2 E,2 F,2 G,2 | A,4) G,4 G,8 | F,8 z4 C,4- | C,4 B,,4 (D,6 C,B,, | %16
w: si- * * * * * *|* de- ra-|bo, et|_ con- si- * *|
 A,,2 B,,2 C,2 D,2 E,2 F,2 G,4) | D,4 D,8 C,4 | z4 C,4 B,,4 D,4- | %19
w: |de- ra- bo,|et con- si-|
 (D,2 C,B,, A,,2 B,,2 C,2 D,2 E,4) | (B,,6 C,2 D,4) A,,4- | (A,,2 B,,2 C,2 D,2 E,4) C,4 | z16 | %23
w: |de- * * ra-|* * * * * bo||
 z16 | z4 D,4 E,4 F,4- | F,2 E,2 F,4 D,4 G,4 | F,8 D,4 A,,4 | z8 z4 F,4 | G,4 A,6 G,2 A,4 | %29
w: |mi- ra- bi-|* li- a tu- a|Do- mi- ne,|mi-|ra- bi- li- a|
 F,4 F,4 C,6 C,2 | G,8 z8 | z4 (G,6 F,E, F,4) | E,4 C,4 D,8- | D,8 E,4 C,4 | %34
w: tu- a Do- mi-|ne,|ut _ _ _|do- ce- as|_ me ju-|
 G,6 G,2 (G,2 F,2 E,2 D,2 | C,2 D,2 E,4) D,8 | C,16 | z4 C,4 (E,6 D,2 | C,4) B,,4 C,4 G,,4 | %39
w: sti- ti- as _ _ _|_ _ _ tu-|as,|da mi- *|* hi in- tel-|
 C,8 G,,8 | z8 z4 C,4 | (E,6 D,2 C,4) B,,4 | C,4 C,4 A,,8 | G,,8 z8 | G,8 A,8 | G,8 C,8 | D,8 E,8 | %47
w: le- ctum,|da|mi- * * hi|in- tel- le-|ctum|et di-|scam man-|da- ta|
 (F,8 E,8) | A,,8 C,8 | D,8 E,8 | (F,8 E,8) | A,,8 C,8 | D,8 E,8 | F,16 | E,16 |] %55
w: tu- *|a, man-|da- ta|tu- *|a, man-|da- ta|tu-|a.|

